X: 1
T: Lord of Glory, Who Hast Bought Us
C: Words: Eliza S. Alderson, 1864.  Music: 'HyFrydol' Rowland H. Prichard, 1830.  Setting: "The English Hymnal", 1906.
C: copyright: public domain.  This score is a part of the Open Hymnal Project, 2006 Revision.
S: Music source: 'The English Hymnal' 1906, Hymn 563.
M: 3/4 % time signature
L: 1/4 % default length
%%staves (S1V1 S1V2) | (S2V1 S2V2) 
V: S1V1 clef=treble 
%%MIDI beat 127 125 110 1
V: S1V2 
%%MIDI beat 127 125 110 1
V: S2V1 clef=bass 
%%MIDI beat 127 125 110 1
V: S2V2 
%%MIDI beat 127 125 110 1
K: F % key signature
%
%%MIDI program 1 0 % Piano 1
%%MIDI program 2 0 % Piano 1
%%MIDI program 3 0 % Piano 1
%%MIDI program 4 0 % Piano 1
%
% 1
[V: S1V1] [Q:1/4=130] F2 G | (F3/2 G/) A | B2 A | (G F) G | c2 B | A2 A | (G F) G | F3 |
w: 1.~Lord of Glo- * ry, who hast bought * us with Thy life- blood as * the price, 
w: 2.~Grant us hearts, * dear Lord, to yield * Thee glad- ly, free- ly, of * Thine own. 
w: 3.~Wond- rous hon- * or hast Thou giv- * en to our humb- lest cha- * ri- ty. 
w: 4.~Lord of Glo- * ry, who hast bought * us with Thy life- blood as * the price, 
[V: S1V2]  C2 E | F2 F | G2 F | (E D) E | (F C) D/E/ | F2 F/E/ | (D D) E | F3 |
[V: S2V1]  [F,2A,2] G, | (A,3/2 B,/) C | (D C) C | (C A,) C | C2 C | C2 C | (B, A,) C | A,3 |
[V: S2V2]  (F,, A,,) C, | F,2 F, | (F, E,) F, | (C, D,) C, | A,2 G, | F,2 A,, | (B,, D,) C, | F,3 |
% 13
[V: S1V1]  F2 G | (F3/2 G/) A | B2 A | (G F) G | c2 B | A2 A | (G F) G | F3 |
w: Nev- er grud- * ging for the lost * ones that tre- men- dous sac- * ri- fice; 
w: With the sun- * shine of Thy good- * ness melt our thank- less hearts * of stone. 
w: In Thine own * mys- ter- ious sen- * tence, "Ye have done it un- * to Me." 
w: Nev- er grud- * ging for the lost * ones that tre- men- dous sac- * ri- fice; 
[V: S1V2]  C2 E | F2 F | G2 F | (E D) E | (F C) D/E/ | F2 F/E/ | (D D) E | F3 |
[V: S2V1]  [F,2A,2] G, | (A,3/2 B,/) C | (D C) C | (C A,) C | C2 C | C2 C | (B, A,) C | A,3 |
[V: S2V2]  (F,, A,,) C, | F,2 F, | (F, E,) F, | (C, D,) C, | A,2 G, | F,2 A,, | (B,, D,) C, | F,3 |
% 17
[V: S1V1]  c2 c | (c B) A | B2 B | (B A) G | A2 A | (A B) c | (c B) A | G3 |
w: And with that * hast free- ly giv- * en bless- ings count- * less as * the sand, 
w: Till our cold * and self- ish na- * tures, warmed by Thee, * at length * be- lieve 
w: Can it be, * O grac- ious Mas- * ter, Thou dost deign * for alms * to sue, 
w: Give us faith, * to trust Thee bold- * ly; hope, to stay * our souls * on Thee; 
[V: S1V2]  E2 E | F2 F | (F E) D | (E F) C | C2 F | (F G) A | (A G) F | (F2 E) |
[V: S2V1]  C2 C | (F, G,) A, | G,2 G, | (G, C) B, | A,2 C | D2 C | D2 D | G,3 |
[V: S2V2]  A,2 A, | D,2 D, | G,2 G, | (C, D,) E, | F,2 E, | D,2 A,, | G,,2 B,, | C,3 |
% 25
[V: S1V1]  (c A) c | (B G) B | (A F) A | (G/A/ B/A/) G | !sintro!c2 c | (d c) B | A2 G | F3 !eintro!|]
w: To * th'un- thank- * ful and * the ev- * * * il with Thine own * un- spar- ing hand. 
w: That * more hap- * py and * more bless- * * * ed 'tis to give * than to re- ceive. 
w: Say- * ing by * Thy poor * and need- * * * y, "Give as I * have giv- en you" 
w: But * O, best * of all * Thy gra- * * * ces, give us Thine * own cha- ri- ty. 
[V: S1V2]  F2 A | G2 G | (F C) F | (G/E/ F) C | (C F) _E | (D F) F | F2 E | F3 |]
[V: S2V1]  C2 D | D2 C | (C A,) =B, | (C _B,) B, | A,2 C | (B, C) D | C2 B, | [F,3A,3] |]
[V: S2V2]  A,2 F, | (F, E,/D,/) E, | (F, E,) D, | (E,/C,/ D,) E, | F,2 A,, | (B,, A,,) B,, | C,2 C, | F,,3 |]
% 33
